cpp/luts/Natural+.cube
TITLE "Transferred from LUMIX camera"
#LUMIXPHOTOSTYLE NAT
LUT_3D_SIZE 33
0 0 0.0039215
0 0 0
0.0274509 0 0
0.0666666 0 0
0.1058823 0 0
0.1411764 0 0
0.1843137 0 0
0.2196078 0 0.0039215
0.2588235 0 0
0.2941176 0 0
0.3411764 0 0
0.372549 0 0
0.4117647 0 0
0.4509803 0 0
0.490196 0 0
0.5254902 0 0
0.5647059 0 0
0.6039215 0 0
0.6352941 0 0.0039215
0.6823529 0 0
0.717647 0 0
0.7607843 0 0
0.7882353 0 0
0.8274509 0 0
0.8666666 0 0
0.8980392 0 0
0.945098 0 0
0.9803921 0 0
0.9960784 0 0
0.9960784 0 0
0.9960784 0 0
0.9960784 0 0
0.9921568 0 0
0 0 0
0 0 0
0.0274509 0 0
0.0627451 0 0
0.1058823 0 0
0.1411764 0 0
0.1843137 0 0
0.2196078 0 0.0039215
0.2588235 0 0
0.3019607 0 0
0.3411764 0 0
0.372549 0 0
0.4117647 0 0
0.4509803 0 0
0.4941176 0 0
0.5254902 0 0
0.5647059 0 0
0.6039215 0 0
0.6313725 0 0.0039215
0.6823529 0 0
0.7098039 0 0
0.7607843 0 0
0.7882353 0 0
0.8274509 0 0
0.8666666 0 0
0.8980392 0 0
0.945098 0 0
0.9803921 0 0.0078431
0.9960784 0 0
0.9960784 0 0
0.9960784 0 0
0.9960784 0 0
0.9960784 0 0
0 0.0235294 0
0 0.0235294 0
0.0274509 0.0235294 0
0.0627451 0.0274509 0
0.1058823 0.0313725 0
0.1411764 0.0274509 0
0.1803921 0.0274509 0
0.2235294 0.0313725 0
0.2588235 0.0274509 0
0.2980392 0.0274509 0
0.3372549 0.0274509 0
0.3647058 0.0235294 0
0.4039215 0.0235294 0
0.4431372 0.0235294 0
0.4823529 0.0235294 0
0.517647 0.0196078 0
0.5568627 0.0196078 0
0.5921568 0.0156862 0.0039215
0.627451 0.0196078 0
0.6745098 0.0078431 0
0.7137255 0.0078431 0
0.745098 0.0117647 0
0.7843137 0.0117647 0
0.8196078 0.0078431 0
0.8588235 0.0078431 0
0.8941176 0.0039215 0
0.945098 0.0039215 0.0078431
0.972549 0 0
1 0.0039215 0
1 0.0039215 0
1 0.0039215 0
0.9960784 0 0
0.9960784 0 0
0 0.0588235 0
0.0039215 0.0549019 0
0.0235294 0.0588235 0
0.0549019 0.0549019 0
0.1019607 0.0588235 0.0039215
0.1372549 0.0588235 0
0.1803921 0.0588235 0
0.2117647 0.0549019 0
0.2509804 0.0549019 0
0.2862745 0.0509803 0
0.3372549 0.0588235 0.0039215
0.3647058 0.0509803 0
0.4078431 0.0588235 0
0.4431372 0.0549019 0
0.490196 0.0549019 0
0.5215686 0.0509803 0
0.5607843 0.0509803 0
0.5960784 0.0470588 0
0.6313725 0.0509803 0.0039215
0.6745098 0.0470588 0.0078431
0.7098039 0.0431372 0
0.7490196 0.0509803 0
0.7843137 0.0470588 0
0.8274509 0.0431372 0
0.8549019 0.0352941 0
0.890196 0.0313725 0
0.9333333 0.0392156 0
0.972549 0.0352941 0
1 0.0352941 0
1 0.0352941 0
1 0.0352941 0
1 0.0235294 0
0.9960784 0.0196078 0
0 0.0980392 0
0 0.0980392 0
0.0235294 0.1058823 0
0.0549019 0.1019607 0
0.0980392 0.1019607 0
0.1411764 0.1058823 0
0.1803921 0.1058823 0
0.2235294 0.0980392 0
0.2549019 0.1019607 0
0.2823529 0.0941176 0
0.3333333 0.1019607 0
0.3607843 0.0941176 0
0.4 0.0941176 0
0.4431372 0.090196 0
0.4784313 0.0941176 0
0.517647 0.0941176 0
0.5529412 0.0980392 0
0.5882353 0.090196 0
0.6235294 0.090196 0
0.6745098 0.0823529 0
0.7019608 0.0862745 0
0.7490196 0.090196 0
0.7843137 0.0862745 0
0.8156862 0.0823529 0
0.8588235 0.0823529 0
0.8941176 0.0823529 0
0.9372549 0.0784313 0
0.9647058 0.0745098 0
0.9960784 0.0784313 0
1 0.0705882 0
1 0.0705882 0
0.9960784 0.0666666 0
0.9960784 0.0666666 0
0 0.1372549 0
0 0.1372549 0
0.0196078 0.1372549 0
0.0509803 0.1372549 0
0.1019607 0.1372549 0
0.1294117 0.1372549 0
0.1803921 0.1372549 0.0039215
0.2117647 0.1411764 0
0.2509804 0.1411764 0
0.2862745 0.1372549 0
0.3333333 0.1333333 0.0039215
0.3607843 0.1333333 0
0.4 0.1333333 0
0.4470588 0.1294117 0
0.4862745 0.1294117 0
0.5215686 0.1254902 0
0.545098 0.1294117 0
0.5921568 0.1254902 0
0.6196078 0.1215686 0
0.6705882 0.117647 0
0.7058823 0.1215686 0
0.7490196 0.117647 0
0.7843137 0.1215686 0
0.8117647 0.117647 0
0.8588235 0.1137254 0
0.8862745 0.1137254 0
0.9372549 0.1137254 0
0.972549 0.1098039 0
0.9960784 0.1137254 0
1 0.1098039 0
0.9960784 0.1058823 0
1 0.0980392 0
1 0.0980392 0
0 0.172549 0
0 0.172549 0
0.0274509 0.1764705 0
0.0549019 0.1764705 0
0.0980392 0.172549 0
0.1333333 0.1764705 0
0.1764705 0.172549 0.0039215
0.2117647 0.1764705 0
0.2549019 0.172549 0
0.2862745 0.172549 0
0.3294117 0.1686274 0
0.3607843 0.1686274 0
0.3921568 0.172549 0
0.4431372 0.172549 0
0.4784313 0.1686274 0
0.517647 0.1686274 0
0.5490196 0.1647058 0
0.5921568 0.1647058 0
0.627451 0.1647058 0
0.6705882 0.1647058 0
0.7019608 0.1607843 0
0.745098 0.1607843 0
0.7803921 0.1529411 0
0.8156862 0.1568627 0
0.8549019 0.1568627 0
0.890196 0.1529411 0
0.9294117 0.1529411 0
0.9647058 0.1490196 0
1 0.1490196 0
1 0.1490196 0
1 0.1411764 0
1 0.1372549 0
1 0.1372549 0
0 0.2117647 0
0 0.2117647 0
0.0156862 0.2078431 0
0.0509803 0.2117647 0
0.0941176 0.2117647 0
0.1372549 0.2078431 0.0039215
0.1803921 0.2117647 0
0.2117647 0.2156862 0.0039215
0.2549019 0.2078431 0
0.2862745 0.2117647 0
0.3333333 0.2078431 0
0.3607843 0.2078431 0
0.4 0.2078431 0
0.4431372 0.2117647 0
0.4745098 0.2039215 0
0.5098039 0.2 0
0.5490196 0.2 0
0.5882353 0.1960784 0
0.6196078 0.2 0
0.6705882 0.1921568 0
0.7019608 0.1921568 0
0.7411764 0.1960784 0
0.7764706 0.1960784 0
0.8117647 0.1921568 0
0.8431372 0.1921568 0
0.8862745 0.1882352 0
0.9215686 0.1803921 0
0.9490196 0.1882352 0
1 0.1843137 0
1 0.1843137 0
1 0.1764705 0
0.9921568 0.1647058 0
0.9921568 0.1647058 0
0 0.2431372 0
0 0.2470588 0
0.0196078 0.2470588 0
0.0470588 0.2470588 0
0.0980392 0.2470588 0
0.1372549 0.2470588 0
0.1803921 0.2509804 0
0.2117647 0.2509804 0
0.2549019 0.2549019 0.0039215
0.2862745 0.2470588 0
0.3294117 0.2431372 0
0.3607843 0.2431372 0
0.4 0.2431372 0
0.4392156 0.2431372 0
0.4784313 0.2431372 0
0.517647 0.2431372 0
0.545098 0.2392156 0
0.5843137 0.2392156 0
0.6196078 0.2352941 0
0.6549019 0.2313725 0
0.6941176 0.2313725 0
0.7411764 0.2274509 0
0.7764706 0.2352941 0.0039215
0.8078431 0.2274509 0
0.8431372 0.2313725 0
0.8745098 0.2274509 0
0.9215686 0.2235294 0
0.9568627 0.2156862 0
0.9960784 0.2196078 0
0.9960784 0.2196078 0
0.9960784 0.2196078 0
0.9960784 0.2078431 0
0.9960784 0.2078431 0
0 0.2862745 0.0078431
0 0.2862745 0
0.0156862 0.2823529 0
0.0470588 0.2823529 0
0.0941176 0.2823529 0
0.1294117 0.2862745 0
0.1686274 0.2784313 0
0.2039215 0.2823529 0
0.2470588 0.2862745 0
0.2862745 0.2862745 0.0039215
0.3254902 0.2784313 0
0.3607843 0.2823529 0
0.4 0.2823529 0
0.4392156 0.2823529 0
0.4705882 0.2745098 0
0.5098039 0.2705882 0
0.545098 0.2745098 0
0.5843137 0.2666666 0
0.6117647 0.2745098 0
0.6627451 0.2666666 0
0.6980392 0.2705882 0
0.7294117 0.2627451 0
0.7686274 0.2588235 0
0.8 0.2627451 0
0.8509804 0.2666666 0
0.8745098 0.2588235 0
0.9215686 0.2588235 0
0.945098 0.2588235 0
1 0.2470588 0
1 0.2470588 0
1 0.2470588 0
1 0.2431372 0
1 0.2431372 0
0 0.3254902 0.0039215
0 0.3254902 0.0039215
0.0117647 0.3254902 0
0.0352941 0.3254902 0
0.090196 0.3254902 0.0039215
0.1294117 0.3254902 0
0.172549 0.3294117 0
0.2039215 0.3294117 0
0.2392156 0.3215686 0
0.2784313 0.3254902 0
0.3294117 0.3294117 0
0.3568627 0.3215686 0
0.3921568 0.317647 0
0.4313725 0.317647 0
0.4705882 0.317647 0
0.5058823 0.3137255 0
0.545098 0.3137255 0
0.5803921 0.3098039 0
0.6156862 0.3137255 0
0.6588235 0.3098039 0
0.690196 0.3098039 0
0.7294117 0.3058823 0.0039215
0.7686274 0.3058823 0
0.7960784 0.3058823 0.0078431
0.8392156 0.2980392 0
0.8705882 0.3019607 0
0.917647 0.2980392 0
0.945098 0.2980392 0
0.9960784 0.2980392 0
1 0.2941176 0
1 0.290196 0
0.9960784 0.2784313 0
1 0.2823529 0
0 0.3529411 0.0039215
0 0.3529411 0
0 0.3529411 0
0.0470588 0.3529411 0
0.0862745 0.3568627 0
0.1254902 0.3568627 0
0.1647058 0.3529411 0
0.2039215 0.3568627 0
0.2431372 0.3568627 0
0.2745098 0.345098 0
0.3215686 0.3568627 0
0.3490196 0.3529411 0
0.3882353 0.3529411 0
0.4235294 0.3490196 0
0.4745098 0.3490196 0
0.5019608 0.3490196 0
0.5411764 0.3490196 0
0.5764706 0.345098 0
0.6078431 0.3411764 0
0.6627451 0.3333333 0
0.690196 0.3333333 0
0.7294117 0.3333333 0.0039215
0.7607843 0.3372549 0
0.8 0.3372549 0
0.8392156 0.3254902 0
0.8705882 0.3294117 0
0.9098039 0.3294117 0
0.9411764 0.3254902 0
0.9960784 0.3254902 0
1 0.3254902 0
0.9960784 0.3215686 0
0.9960784 0.3098039 0
0.9960784 0.3098039 0.0078431
0 0.3921568 0
0 0.3921568 0
0.0078431 0.3960784 0
0.0392156 0.3921568 0
0.0823529 0.3882353 0
0.1215686 0.3882353 0
0.1647058 0.3960784 0
0.2 0.3882353 0
0.2392156 0.3882353 0
0.2745098 0.3921568 0
0.317647 0.3882353 0
0.3529411 0.3921568 0
0.3882353 0.3882353 0
0.4313725 0.3921568 0
0.4705882 0.3843137 0
0.5019608 0.3843137 0
0.5411764 0.3843137 0
0.5686274 0.3803921 0
0.6078431 0.3803921 0.0039215
0.6549019 0.3764705 0.0078431
0.6862745 0.3764705 0
0.7254902 0.3686274 0
0.7607843 0.372549 0
0.8039215 0.3686274 0
0.8392156 0.372549 0
0.8745098 0.3686274 0
0.9098039 0.3647058 0
0.9372549 0.3607843 0
0.9921568 0.3686274 0
0.9960784 0.3568627 0
1 0.3529411 0
0.9960784 0.345098 0
0.9960784 0.345098 0
0 0.4313725 0.0039215
0 0.4313725 0.0039215
0 0.4313725 0
0.0392156 0.4313725 0
0.0784313 0.4313725 0
0.117647 0.4313725 0
0.1568627 0.4313725 0
0.1960784 0.4313725 0.0078431
0.2352941 0.4313725 0
0.2627451 0.4274509 0
0.3098039 0.4274509 0
0.345098 0.4313725 0
0.3882353 0.4274509 0
0.4274509 0.4274509 0
0.4549019 0.4235294 0
0.4980392 0.4274509 0
0.5411764 0.4235294 0
0.572549 0.4235294 0
0.6 0.4196078 0
0.6509804 0.4117647 0
0.6823529 0.4117647 0
0.7333333 0.4156862 0.0078431
0.7607843 0.4117647 0
0.7882353 0.4078431 0
0.8196078 0.4078431 0
0.8666666 0.4078431 0
0.9098039 0.4039215 0
0.9372549 0.3960784 0
0.9843137 0.4039215 0.0039215
1 0.3960784 0
1 0.3882353 0
0.9960784 0.3882353 0
0.9960784 0.3843137 0
0 0.4666666 0
0 0.4666666 0
0 0.4666666 0
0.0352941 0.4666666 0
0.0705882 0.4705882 0
0.1098039 0.4705882 0
0.1529411 0.4666666 0
0.1921568 0.4666666 0
0.2274509 0.4627451 0
0.2666666 0.4705882 0
0.3137255 0.4666666 0
0.3411764 0.4627451 0
0.3803921 0.4666666 0
0.4156862 0.4588235 0
0.4588235 0.4627451 0
0.4941176 0.4627451 0
0.5372549 0.4666666 0
0.5686274 0.4549019 0
0.6039215 0.4588235 0
0.6431372 0.4509803 0
0.6784313 0.4549019 0
0.7294117 0.4470588 0
0.7607843 0.4509803 0
0.7921568 0.4470588 0
0.8313725 0.4431372 0
0.8666666 0.4392156 0
0.9098039 0.4431372 0
0.9411764 0.4392156 0
0.9803921 0.4313725 0
0.9960784 0.4313725 0
1 0.4352941 0
1 0.4235294 0
1 0.4235294 0
0 0.5019608 0
0 0.5019608 0
0 0.5019608 0
0.0274509 0.5019608 0
0.0705882 0.4941176 0
0.1137254 0.5019608 0
0.1529411 0.5019608 0
0.1803921 0.4980392 0
0.2274509 0.4980392 0
0.2705882 0.5019608 0
0.3098039 0.5019608 0
0.3411764 0.4980392 0
0.3764705 0.4941176 0
0.4196078 0.490196 0
0.4588235 0.4980392 0
0.4941176 0.4941176 0.0078431
0.5333333 0.4941176 0
0.5686274 0.490196 0
0.6 0.4941176 0
0.6549019 0.490196 0.0039215
0.6862745 0.490196 0.0039215
0.7254902 0.4823529 0
0.7568627 0.4823529 0
0.8 0.4784313 0
0.8196078 0.4823529 0
0.8588235 0.4745098 0
0.9019607 0.4784313 0.0039215
0.9294117 0.4705882 0
0.9882352 0.4745098 0.0039215
1 0.4705882 0.0039215
1 0.4705882 0
1 0.4549019 0
1 0.4549019 0
0 0.5333333 0
0 0.5333333 0
0 0.5333333 0
0.0235294 0.5333333 0
0.0705882 0.5372549 0
0.1098039 0.5372549 0
0.1490196 0.5372549 0
0.1803921 0.5333333 0
0.2196078 0.5333333 0
0.2588235 0.5333333 0
0.2980392 0.5333333 0
0.3372549 0.5333333 0
0.3764705 0.5333333 0
0.4117647 0.5294117 0
0.4549019 0.5333333 0
0.490196 0.5372549 0.0039215
0.5294117 0.5294117 0
0.5647059 0.5333333 0
0.5921568 0.5294117 0
0.6431372 0.5254902 0
0.6705882 0.5215686 0
0.7254902 0.5215686 0.0039215
0.7490196 0.517647 0
0.7882353 0.517647 0
0.8313725 0.5137255 0.0039215
0.8666666 0.517647 0
0.9137254 0.5098039 0
0.9215686 0.5098039 0.0039215
0.972549 0.517647 0
1 0.5098039 0
0.9960784 0.4980392 0
1 0.5019608 0.0039215
1 0.5019608 0.0039215
0 0.572549 0
0 0.572549 0
0 0.572549 0
0.0274509 0.5647059 0.0039215
0.0705882 0.5647059 0
0.1019607 0.572549 0.0039215
0.145098 0.5647059 0
0.1764705 0.5686274 0
0.2156862 0.5686274 0.0039215
0.2549019 0.5686274 0
0.2941176 0.5686274 0.0039215
0.3294117 0.572549 0
0.3686274 0.572549 0
0.4039215 0.5686274 0
0.4549019 0.5607843 0
0.4862745 0.5647059 0
0.5254902 0.572549 0
0.5568627 0.5607843 0
0.5960784 0.5647059 0
0.6470588 0.5568627 0
0.6705882 0.5568627 0
0.7137255 0.5568627 0
0.7490196 0.5568627 0
0.7803921 0.5568627 0
0.8196078 0.5490196 0
0.8588235 0.5490196 0
0.9019607 0.5411764 0
0.9294117 0.545098 0
0.9803921 0.5411764 0
1 0.5372549 0
1 0.5372549 0.0039215
0.9960784 0.5254902 0
0.9960784 0.5254902 0
0 0.6 0
0 0.6 0
0 0.6 0
0.0196078 0.6039215 0
0.0627451 0.6 0
0.1019607 0.6078431 0.0039215
0.1372549 0.6039215 0
0.1764705 0.6039215 0
0.2117647 0.6 0
0.2431372 0.6 0
0.2980392 0.6 0
0.3333333 0.6039215 0
0.3607843 0.6 0
0.4078431 0.6 0
0.4470588 0.6 0
0.4823529 0.5960784 0
0.5254902 0.6 0
0.5607843 0.6039215 0.0039215
0.5960784 0.6 0.0039215
0.6392157 0.5960784 0
0.6627451 0.5960784 0
0.7137255 0.5882353 0
0.745098 0.5921568 0
0.7764706 0.5921568 0
0.8235294 0.5803921 0
0.8588235 0.5843137 0
0.8980392 0.5843137 0
0.9215686 0.5764706 0
0.9764705 0.5843137 0
1 0.5764706 0
0.9960784 0.5686274 0.0078431
1 0.5568627 0.0078431
1 0.5568627 0
0 0.6509804 0
0 0.6509804 0
0 0.6470588 0
0.0117647 0.6509804 0.0039215
0.0509803 0.6549019 0
0.0980392 0.6509804 0
0.1333333 0.6431372 0
0.172549 0.6431372 0
0.2117647 0.6470588 0
0.2392156 0.6431372 0
0.2941176 0.6509804 0.0039215
0.3215686 0.6470588 0.0039215
0.3568627 0.6431372 0
0.3960784 0.6431372 0
0.4352941 0.6509804 0.0039215
0.4745098 0.6431372 0
0.5137255 0.6431372 0
0.5490196 0.6392157 0.0039215
0.5843137 0.6431372 0
0.6392157 0.6431372 0
0.6705882 0.6431372 0
0.7137255 0.6352941 0
0.7372549 0.6313725 0
0.7803921 0.6352941 0
0.8156862 0.6352941 0
0.8470588 0.627451 0
0.8941176 0.6235294 0
0.9215686 0.6235294 0
0.9607843 0.6235294 0
1 0.6235294 0
1 0.6235294 0
1 0.6117647 0
1 0.6117647 0
0.0039215 0.6784313 0
0.0039215 0.6784313 0.0039215
0.0039215 0.6784313 0.0039215
0.0078431 0.6745098 0.0039215
0.0627451 0.6745098 0
0.0941176 0.6745098 0
0.1333333 0.6784313 0
0.1647058 0.6745098 0
0.2078431 0.6705882 0
0.2431372 0.6745098 0
0.2862745 0.6745098 0
0.3137255 0.6745098 0
0.3607843 0.6745098 0
0.3960784 0.6705882 0
0.4352941 0.6705882 0
0.4705882 0.6745098 0
0.5137255 0.6705882 0
0.5529412 0.6705882 0
0.5960784 0.6745098 0.0039215
0.6392157 0.6666666 0
0.6627451 0.6705882 0
0.7058823 0.6666666 0
0.7411764 0.6627451 0
0.7764706 0.6666666 0
0.8196078 0.6627451 0
0.8549019 0.6549019 0
0.8862745 0.6549019 0
0.9215686 0.6509804 0
0.9607843 0.6588235 0
0.9960784 0.6470588 0
0.9960784 0.6470588 0
1 0.6509804 0.0078431
0.9921568 0.6352941 0
0 0.717647 0
0 0.717647 0
0 0.717647 0
0.0039215 0.717647 0
0.0431372 0.717647 0
0.0862745 0.7215686 0
0.1294117 0.7254902 0.0078431
0.1490196 0.7215686 0
0.2 0.717647 0
0.2352941 0.7137255 0
0.2784313 0.7098039 0
0.3137255 0.717647 0
0.3490196 0.717647 0
0.3921568 0.7137255 0
0.4313725 0.7058823 0
0.4705882 0.7137255 0
0.5137255 0.7058823 0
0.5490196 0.7098039 0.0039215
0.5882353 0.7137255 0.0039215
0.6352941 0.7098039 0
0.6627451 0.7098039 0
0.7098039 0.7058823 0
0.7411764 0.7098039 0
0.772549 0.7058823 0
0.8117647 0.7058823 0
0.8509804 0.7058823 0
0.890196 0.6980392 0
0.917647 0.6941176 0
0.9607843 0.6980392 0
0.9960784 0.690196 0.0039215
0.9960784 0.6862745 0
1 0.6784313 0
1 0.6784313 0
0 0.7529411 0
0 0.7529411 0
0 0.745098 0
0 0.745098 0
0.0470588 0.7490196 0
0.0862745 0.7490196 0
0.1254902 0.7490196 0
0.1607843 0.745098 0
0.2 0.745098 0
0.2352941 0.7490196 0.0039215
0.2784313 0.7411764 0.0039215
0.3098039 0.7490196 0
0.3568627 0.745098 0
0.3843137 0.745098 0
0.4352941 0.745098 0
0.4666666 0.745098 0
0.5098039 0.7490196 0
0.5372549 0.745098 0
0.5764706 0.745098 0
0.6235294 0.745098 0
0.6549019 0.745098 0
0.7019608 0.7411764 0
0.7333333 0.745098 0
0.7686274 0.7411764 0.0039215
0.8078431 0.7294117 0
0.8392156 0.7333333 0
0.8823529 0.7372549 0
0.9137254 0.7254902 0
0.9607843 0.7254902 0
0.9960784 0.7294117 0.0039215
1 0.7215686 0
0.9882352 0.7098039 0
0.9921568 0.7137255 0
0 0.7803921 0
0 0.7803921 0
0 0.7803921 0
0 0.7803921 0
0.0313725 0.7764706 0
0.0784313 0.7764706 0
0.1215686 0.7843137 0
0.1568627 0.7803921 0
0.1960784 0.7803921 0
0.2431372 0.7764706 0
0.2745098 0.7803921 0
0.3098039 0.772549 0
0.3490196 0.7764706 0
0.3843137 0.7764706 0
0.4274509 0.7764706 0
0.4666666 0.7803921 0.0078431
0.5019608 0.7764706 0
0.5372549 0.772549 0
0.5764706 0.772549 0
0.6196078 0.7686274 0
0.6549019 0.772549 0
0.6980392 0.7686274 0
0.7372549 0.7764706 0.0039215
0.772549 0.772549 0.0039215
0.8078431 0.7686274 0.0039215
0.8392156 0.7647058 0
0.8823529 0.7647058 0
0.9098039 0.7686274 0
0.9568627 0.7568627 0
0.9882352 0.7529411 0
1 0.7568627 0
1 0.745098 0
1 0.745098 0
0 0.8235294 0
0 0.8196078 0
0 0.8196078 0
0 0.8196078 0
0.0470588 0.8235294 0.0039215
0.0784313 0.8117647 0
0.117647 0.8117647 0
0.1490196 0.8156862 0
0.1843137 0.8117647 0
0.2196078 0.8156862 0
0.2745098 0.8156862 0
0.3019607 0.8196078 0
0.345098 0.8156862 0.0117647
0.3803921 0.8117647 0
0.4196078 0.8117647 0
0.4588235 0.8117647 0
0.4980392 0.8117647 0
0.5333333 0.8078431 0
0.5686274 0.8117647 0
0.6196078 0.8039215 0
0.6470588 0.8078431 0
0.690196 0.8078431 0
0.7254902 0.8117647 0
0.7686274 0.8078431 0.0039215
0.8156862 0.8039215 0
0.8392156 0.8078431 0
0.8784313 0.8039215 0
0.9098039 0.7960784 0
0.9529411 0.8 0.0039215
0.9843137 0.8 0
0.9960784 0.7882353 0
0.9960784 0.7803921 0
0.9921568 0.7803921 0
0 0.8509804 0
0 0.8509804 0
0 0.8509804 0
0 0.8470588 0
0.0352941 0.8470588 0.0078431
0.0705882 0.8509804 0
0.1098039 0.8509804 0
0.1490196 0.8431372 0
0.1921568 0.8470588 0
0.2274509 0.8509804 0
0.2666666 0.8431372 0
0.3019607 0.8470588 0
0.345098 0.8509804 0.0039215
0.3803921 0.8470588 0
0.4156862 0.8431372 0
0.4549019 0.8431372 0
0.490196 0.8509804 0
0.5294117 0.8509804 0
0.5686274 0.8392156 0
0.6117647 0.8431372 0
0.6431372 0.8431372 0
0.6862745 0.8392156 0
0.7215686 0.8431372 0.0039215
0.7568627 0.8392156 0
0.8 0.8431372 0
0.8352941 0.8392156 0
0.8705882 0.8352941 0
0.9058823 0.8392156 0
0.945098 0.8313725 0
0.9843137 0.8313725 0.0039215
0.9960784 0.8274509 0
1 0.8117647 0
0.9960784 0.8039215 0
0 0.8941176 0
0 0.8941176 0
0.0078431 0.890196 0
0 0.8941176 0
0.0313725 0.890196 0
0.0627451 0.890196 0
0.1098039 0.890196 0
0.1411764 0.8862745 0
0.1803921 0.890196 0
0.2196078 0.890196 0
0.2666666 0.890196 0
0.2941176 0.8862745 0
0.3333333 0.8823529 0
0.372549 0.8823529 0
0.4078431 0.890196 0
0.4431372 0.8862745 0
0.4862745 0.890196 0
0.5137255 0.8941176 0
0.5607843 0.8862745 0
0.6117647 0.8823529 0
0.6352941 0.8823529 0
0.6823529 0.8784313 0
0.717647 0.8745098 0
0.7490196 0.8784313 0.0039215
0.7882353 0.8784313 0
0.8235294 0.8862745 0.0039215
0.8745098 0.8745098 0
0.8980392 0.8745098 0
0.9411764 0.8745098 0
0.972549 0.8705882 0
1 0.8666666 0
0.9960784 0.8509804 0
0.9960784 0.8509804 0
0 0.917647 0
0 0.917647 0
0 0.917647 0
0 0.917647 0
0.0313725 0.917647 0
0.0666666 0.9137254 0
0.1098039 0.917647 0
0.1372549 0.917647 0
0.1764705 0.9137254 0
