cpp/luts/Natural+.cube
TITLE "Transferred from LUMIX camera"
#LUMIXPHOTOSTYLE NAT
LUT_3D_SIZE 9
0 0 0.0039215
0.1058823 0 0
0.2588235 0 0
0.4117647 0 0
0.5647059 0 0
0.717647 0 0
0.8666666 0 0
0.9960784 0 0
0.9921568 0 0
0 0.0980392 0
0.0980392 0.1019607 0
0.2549019 0.1019607 0
0.4 0.0941176 0
0.5529412 0.0980392 0
0.7019608 0.0862745 0
0.8588235 0.0823529 0
0.9960784 0.0784313 0
0.9960784 0.0666666 0
0 0.2431372 0
0.0980392 0.2470588 0
0.2549019 0.2549019 0.0039215
0.4 0.2431372 0
0.545098 0.2392156 0
0.6941176 0.2313725 0
0.8431372 0.2313725 0
0.9960784 0.2196078 0
0.9960784 0.2078431 0
0 0.3921568 0
0.0823529 0.3882353 0
0.2392156 0.3882353 0
0.3882353 0.3882353 0
0.5411764 0.3843137 0
0.6862745 0.3764705 0
0.8392156 0.372549 0
0.9921568 0.3686274 0
0.9960784 0.345098 0
0 0.5333333 0
0.0705882 0.5372549 0
0.2196078 0.5333333 0
0.3764705 0.5333333 0
0.5294117 0.5294117 0
0.6705882 0.5215686 0
0.8313725 0.5137255 0.0039215
0.972549 0.517647 0
1 0.5019608 0.0039215
0.0039215 0.6784313 0
0.0627451 0.6745098 0
0.2078431 0.6705882 0
0.3607843 0.6745098 0
0.5137255 0.6705882 0
0.6627451 0.6705882 0
0.8196078 0.6627451 0
0.9607843 0.6588235 0
0.9921568 0.6352941 0
0 0.8235294 0
0.0470588 0.8235294 0.0039215
0.1843137 0.8117647 0
0.345098 0.8156862 0.0117647
0.4980392 0.8117647 0
0.6470588 0.8078431 0
0.8156862 0.8039215 0
0.9529411 0.8 0.0039215
0.9921568 0.7803921 0
0 0.9607843 0
0.0156862 0.9647058 0
0.1686274 0.9529411 0
0.3254902 0.9529411 0
0.4784313 0.9490196 0
0.6235294 0.9490196 0
0.7921568 0.9411764 0.0039215
0.945098 0.9411764 0
0.9960784 0.9215686 0
0 1 0.0039215
0 1 0.0039215
0.1411764 0.9960784 0
0.3019607 1 0.0039215
0.4509803 0.9960784 0
0.6078431 0.9960784 0.0039215
0.7568627 0.9960784 0
0.9058823 0.9960784 0.0078431
0.9960784 1 0.0117647
0 0 0.0980392
0.0980392 0 0.0941176
0.2549019 0 0.1098039
0.4039215 0 0.0941176
0.5607843 0 0.0980392
0.7137255 0 0.0941176
0.8666666 0 0.0862745
1 0 0.0862745
0.9960784 0 0.0745098
0.0078431 0.0980392 0.1058823
0.1019607 0.0941176 0.090196
0.2588235 0.1019607 0.0980392
0.4078431 0.090196 0.0941176
0.5490196 0.0862745 0.0941176
0.7019608 0.0823529 0.0862745
0.8549019 0.0784313 0.090196
1 0.0705882 0.0745098
0.9960784 0.0627451 0.0666666
0 0.2470588 0.0980392
0.0980392 0.2470588 0.0941176
0.2470588 0.2470588 0.0980392
0.3921568 0.2352941 0.090196
0.545098 0.2313725 0.0784313
0.690196 0.2274509 0.0705882
0.8392156 0.2196078 0.0666666
1 0.2156862 0.0666666
1 0.2 0.0549019
0 0.3960784 0.090196
0.090196 0.3882353 0.0823529
0.2274509 0.3843137 0.090196
0.3803921 0.3843137 0.0745098
0.5372549 0.3843137 0.0666666
0.6823529 0.372549 0.0627451
0.8274509 0.3647058 0.0588235
0.9882352 0.3529411 0.0509803
0.9960784 0.3490196 0.0431372
0 0.5372549 0.0784313
0.0705882 0.5254902 0.0588235
0.2235294 0.5254902 0.0705882
0.3686274 0.5294117 0.0666666
0.5215686 0.5294117 0.0549019
0.6705882 0.5215686 0.0549019
0.8313725 0.5137255 0.0470588
0.9803921 0.5058823 0.0470588
0.9960784 0.490196 0.0352941
0 0.6666666 0.0470588
0.0509803 0.6745098 0.0549019
0.1960784 0.6627451 0.0431372
0.3568627 0.6705882 0.0470588
0.5137255 0.6666666 0.0509803
0.6627451 0.6588235 0.0470588
0.8078431 0.6470588 0.0352941
0.9647058 0.6431372 0.0274509
0.9882352 0.6313725 0.0235294
0 0.8117647 0.0352941
0.0352941 0.8117647 0.0392156
0.1882352 0.8156862 0.0392156
0.3411764 0.8039215 0.0313725
0.4980392 0.8078431 0.0274509
0.6431372 0.8 0.0196078
0.8 0.8 0.0235294
0.9411764 0.7921568 0.0117647
0.9921568 0.772549 0.0392156
0 0.9607843 0.0313725
0.0156862 0.9529411 0.0196078
0.1686274 0.9568627 0.0156862
0.3215686 0.9529411 0.0156862
0.4627451 0.9529411 0.0117647
0.6352941 0.9411764 0.0078431
0.7764706 0.945098 0
0.9372549 0.9294117 0.0039215
1 0.9098039 0.0705882
0 1 0.0039215
0 1 0.0039215
0.145098 0.9960784 0.0039215
0.2941176 0.9960784 0
0.4431372 1 0
0.6117647 1 0.0117647
0.7490196 0.9921568 0.0235294
0.8941176 1 0.0313725
0.9960784 1 0.0117647
0 0 0.2588235
0.1058823 0 0.2549019
0.2588235 0 0.2588235
0.4078431 0 0.2549019
0.5647059 0 0.2509804
0.7058823 0 0.2431372
0.8549019 0 0.2431372
1 0 0.2313725
1 0 0.2196078
0 0.1019607 0.2549019
0.0980392 0.0980392 0.2549019
0.2509804 0.1019607 0.2549019
0.4 0.090196 0.2509804
0.5529412 0.090196 0.2392156
0.7019608 0.0862745 0.2392156
0.8549019 0.0784313 0.2313725
1 0.0705882 0.2274509
0.9960784 0.0627451 0.2117647
0 0.2509804 0.2509804
0.0941176 0.2431372 0.2470588
0.2431372 0.2431372 0.2431372
0.3960784 0.2392156 0.2352941
0.545098 0.2274509 0.2313725
0.6862745 0.2235294 0.2235294
0.8352941 0.2156862 0.2156862
0.9960784 0.2117647 0.2078431
1 0.2 0.2039215
0 0.3921568 0.2352941
0.0784313 0.3921568 0.2313725
0.2235294 0.3803921 0.2235294
0.3803921 0.3803921 0.2235294
0.5294117 0.372549 0.2196078
0.6784313 0.3647058 0.2117647
0.8274509 0.3647058 0.2078431
0.9764705 0.3490196 0.2
1 0.3411764 0.1843137
0 0.5333333 0.2274509
0.0666666 0.5333333 0.2196078
0.2117647 0.5215686 0.2117647
0.3686274 0.5215686 0.2117647
0.5215686 0.5254902 0.2117647
0.6705882 0.517647 0.2
0.8117647 0.5019608 0.1921568
0.9647058 0.4980392 0.1921568
0.9960784 0.4862745 0.1882352
0 0.6705882 0.2156862
0.0509803 0.6666666 0.2078431
0.1921568 0.6627451 0.1960784
0.3490196 0.6627451 0.1960784
0.5098039 0.6627451 0.2
0.6549019 0.6588235 0.1960784
0.7960784 0.6509804 0.1843137
0.945098 0.6392157 0.1686274
1 0.6235294 0.1686274
0 0.8156862 0.1960784
0.0392156 0.8156862 0.2
0.1843137 0.8117647 0.1843137
0.3254902 0.8039215 0.1803921
0.4784313 0.8 0.1764705
0.627451 0.8 0.1764705
0.7843137 0.7921568 0.172549
0.9411764 0.7843137 0.1607843
0.9960784 0.772549 0.172549
0 0.9568627 0.1803921
0.0117647 0.9529411 0.172549
0.1607843 0.945098 0.1647058
0.3098039 0.9372549 0.1529411
0.4705882 0.945098 0.1568627
0.6235294 0.9333333 0.1529411
0.772549 0.9372549 0.1529411
0.9254902 0.9372549 0.1411764
1 0.9137254 0.1882352
0 1 0.1490196
0 1 0.1490196
0.145098 0.9960784 0.145098
0.2980392 1 0.1568627
0.4470588 0.9921568 0.1411764
0.6 0.9960784 0.1490196
0.7490196 0.9960784 0.1529411
0.8941176 1 0.1647058
0.9960784 1 0.145098
0 0 0.4117647
0.1019607 0 0.4078431
0.2549019 0.0039215 0.4
0.4039215 0 0.4117647
0.5647059 0 0.4
0.7098039 0 0.4117647
0.8549019 0 0.3960784
0.9960784 0 0.3921568
1 0 0.3686274
0 0.0941176 0.4
0.0980392 0.0941176 0.4039215
0.2549019 0.1019607 0.4117647
0.4039215 0.0941176 0.4039215
0.5529412 0.0862745 0.4
0.7098039 0.0862745 0.4
0.8509804 0.0784313 0.3764705
1 0.0705882 0.3764705
0.9960784 0.0588235 0.3607843
0 0.2392156 0.4
0.0941176 0.2392156 0.3960784
0.2392156 0.2392156 0.3960784
0.3803921 0.2352941 0.3882353
0.545098 0.2313725 0.3843137
0.6862745 0.2235294 0.372549
0.8352941 0.2117647 0.3764705
1 0.2156862 0.3529411
0.9960784 0.1960784 0.3490196
0 0.3921568 0.3921568
0.0823529 0.3882353 0.3882353
0.2274509 0.3882353 0.3803921
0.3803921 0.3803921 0.3803921
0.5372549 0.372549 0.372549
0.6705882 0.3647058 0.3607843
0.8196078 0.3568627 0.3568627
0.9803921 0.345098 0.3490196
0.9921568 0.3411764 0.3411764
0 0.5333333 0.3764705
0.0666666 0.5333333 0.3764705
0.2117647 0.5254902 0.3647058
0.3568627 0.5137255 0.3568627
0.5098039 0.5098039 0.3607843
0.6627451 0.5058823 0.3607843
0.8156862 0.4941176 0.345098
0.9607843 0.4980392 0.3411764
1 0.4823529 0.3294117
0 0.6823529 0.3647058
0.0549019 0.6666666 0.3568627
0.1960784 0.6705882 0.3529411
0.3372549 0.6549019 0.3372549
0.4980392 0.6549019 0.3333333
0.6431372 0.6549019 0.3372549
0.8078431 0.6352941 0.3333333
0.9411764 0.6313725 0.3215686
0.9960784 0.6235294 0.3098039
0 0.8117647 0.3490196
0.0431372 0.8078431 0.345098
0.1764705 0.8039215 0.3254902
0.3254902 0.8 0.3333333
0.4784313 0.7921568 0.3254902
0.627451 0.7803921 0.317647
0.7803921 0.7921568 0.3254902
0.9254902 0.7764706 0.3019607
0.9960784 0.7647058 0.3098039
0.0039215 0.9607843 0.3294117
0.0196078 0.9529411 0.3254902
0.172549 0.9411764 0.3137255
0.3019607 0.9411764 0.3019607
0.4627451 0.9333333 0.2941176
0.6196078 0.9333333 0.3098039
0.772549 0.9294117 0.2941176
0.9215686 0.917647 0.3058823
1 0.9058823 0.3254902
0 1 0.3137255
0.0039215 0.9921568 0.3058823
0.1372549 1 0.2941176
0.3019607 0.9960784 0.290196
0.4431372 0.9960784 0.2941176
0.5843137 0.9960784 0.3019607
0.745098 1 0.3019607
0.8941176 0.9960784 0.317647
1 1 0.2862745
0 0 0.5607843
0.0980392 0 0.5647059
0.2549019 0 0.5647059
0.4039215 0 0.5568627
0.5607843 0 0.5647059
0.7137255 0 0.5490196
0.8627451 0 0.5490196
0.9960784 0 0.5411764
1 0 0.5254902
0 0.0980392 0.5568627
0.0862745 0.090196 0.5529412
0.2470588 0.090196 0.5529412
0.3960784 0.0941176 0.5568627
0.5529412 0.0941176 0.5568627
0.6980392 0.0823529 0.5490196
0.8470588 0.0745098 0.5411764
0.9960784 0.0705882 0.5411764
1 0.0588235 0.5254902
0 0.2392156 0.5411764
0.0823529 0.2352941 0.5529412
0.2313725 0.2352941 0.545098
0.3843137 0.2313725 0.5411764
0.5411764 0.2313725 0.5411764
0.6862745 0.2156862 0.5411764
0.8431372 0.2196078 0.5333333
0.9960784 0.2078431 0.5215686
0.9960784 0.2 0.5058823
0 0.3882353 0.5372549
0.0784313 0.3803921 0.5372549
0.2235294 0.3803921 0.5372549
0.3647058 0.372549 0.5254902
0.5215686 0.372549 0.5254902
0.6745098 0.3607843 0.5215686
0.8274509 0.3529411 0.5137255
0.972549 0.3529411 0.5058823
0.9960784 0.3333333 0.4941176
0 0.5372549 0.5294117
0.0705882 0.5333333 0.5333333
0.2117647 0.5294117 0.5254902
0.3529411 0.517647 0.517647
0.5098039 0.5098039 0.5098039
0.6588235 0.5019608 0.4980392
0.8117647 0.4941176 0.4980392
0.9529411 0.490196 0.490196
0.9960784 0.4784313 0.4823529
0 0.6705882 0.5215686
0.0470588 0.6666666 0.5137255
0.1960784 0.6666666 0.5098039
0.345098 0.6588235 0.5058823
0.4862745 0.6431372 0.4862745
0.6431372 0.6431372 0.4941176
0.7882353 0.6313725 0.4745098
0.9411764 0.627451 0.4745098
0.9960784 0.6235294 0.4666666
0 0.8196078 0.5098039
0.0313725 0.8117647 0.5019608
0.172549 0.8039215 0.4862745
0.3254902 0.7921568 0.4862745
0.4745098 0.7843137 0.4745098
0.6235294 0.7843137 0.4705882
0.772549 0.7764706 0.4627451
0.9254902 0.772549 0.4549019
0.9960784 0.7647058 0.4588235
0 0.9529411 0.490196
0.0196078 0.9529411 0.4705882
0.1568627 0.9490196 0.4745098
0.3019607 0.9372549 0.4627451
0.4509803 0.9294117 0.4549019
0.6117647 0.9215686 0.4549019
0.7529411 0.917647 0.4470588
0.9058823 0.9137254 0.4313725
0.9960784 0.9058823 0.4509803
0 0.9960784 0.4549019
0 0.9960784 0.4549019
0.1411764 1 0.4509803
0.290196 1 0.4470588
0.4431372 0.9960784 0.4392156
0.5921568 0.9960784 0.4470588
0.745098 1 0.4431372
0.8862745 1 0.4588235
1 1 0.4352941
0 0 0.7215686
0.1058823 0.0039215 0.7294117
0.2470588 0 0.717647
0.4078431 0 0.7254902
0.5686274 0.0039215 0.717647
0.7058823 0 0.7098039
0.8627451 0.0039215 0.7019608
1 0 0.6980392
0.9960784 0 0.6745098
0.0039215 0.090196 0.7137255
0.0941176 0.0980392 0.717647
0.2431372 0.090196 0.7058823
0.3960784 0.0862745 0.7098039
0.5568627 0.0862745 0.7058823
0.6980392 0.0823529 0.690196
0.8588235 0.0705882 0.7058823
1 0.0666666 0.6941176
1 0.0588235 0.6745098
0 0.2352941 0.6980392
0.0784313 0.2313725 0.6980392
0.2313725 0.2274509 0.690196
0.3803921 0.2274509 0.6784313
0.5294117 0.2274509 0.690196
0.6823529 0.2235294 0.6862745
0.8352941 0.2196078 0.6784313
0.9921568 0.2039215 0.6745098
0.9921568 0.2039215 0.6588235
0 0.3764705 0.6862745
0.0666666 0.3843137 0.6941176
0.2078431 0.3686274 0.6823529
0.372549 0.3568627 0.6745098
0.5137255 0.372549 0.6784313
0.6705882 0.3568627 0.6588235
0.8156862 0.3568627 0.6588235
0.9803921 0.3529411 0.6509804
1 0.3411764 0.6588235
0.0039215 0.5372549 0.6784313
0.0666666 0.5254902 0.6784313
0.2078431 0.5215686 0.6745098
0.3568627 0.5137255 0.6666666
0.4980392 0.5058823 0.6509804
0.6549019 0.4980392 0.6470588
0.8078431 0.5019608 0.6509804
0.9529411 0.4941176 0.6235294
1 0.4823529 0.6313725
0 0.6745098 0.6745098
0.0549019 0.6745098 0.6705882
0.2 0.6627451 0.6627451
0.3411764 0.6470588 0.6470588
0.4980392 0.6470588 0.6352941
0.6313725 0.6392157 0.6392157
0.7960784 0.6313725 0.6313725
0.9411764 0.6235294 0.6313725
1 0.6235294 0.6235294
0 0.8196078 0.6470588
0.0313725 0.8078431 0.6549019
0.1803921 0.8039215 0.6313725
0.3137255 0.7960784 0.627451
0.4666666 0.7803921 0.6196078
0.6117647 0.7803921 0.6156862
0.7647058 0.7764706 0.6156862
0.9215686 0.7607843 0.5960784
1 0.7568627 0.6039215
0 0.9568627 0.6392157
0.0078431 0.9490196 0.6235294
0.1568627 0.945098 0.6235294
0.3019607 0.9333333 0.6117647
0.4588235 0.9254902 0.6196078
0.6 0.917647 0.6039215
0.7568627 0.9137254 0.5921568
0.9058823 0.9098039 0.5960784
0.9960784 0.9058823 0.5843137
0 0.9921568 0.6078431
0.0039215 1 0.6078431
0.1411764 1 0.6
0.2941176 1 0.5960784
0.4392156 1 0.5843137
0.5882353 1 0.5921568
0.7411764 1 0.5921568
0.8862745 1 0.5921568
0.9960784 1 0.6
0 0 0.8666666
0.090196 0 0.8666666
0.2470588 0 0.8666666
0.4 0 0.8627451
0.5529412 0 0.8666666
0.7058823 0 0.8627451
0.8627451 0 0.8627451
1 0 0.8549019
1 0 0.8392156
0 0.090196 0.8666666
0.090196 0.090196 0.8666666
0.2352941 0.0862745 0.8588235
0.3921568 0.0823529 0.8627451
0.545098 0.0823529 0.8588235
0.6980392 0.0823529 0.8627451
0.8470588 0.0745098 0.8588235
1 0.0705882 0.8470588
1 0.0588235 0.8313725
0 0.2352941 0.8509804
0.0823529 0.2313725 0.8549019
0.2196078 0.2196078 0.8470588
0.3764705 0.2196078 0.8470588
0.5294117 0.2156862 0.8470588
0.6784313 0.2156862 0.8352941
0.8431372 0.2117647 0.8431372
0.9843137 0.2078431 0.8313725
0.9960784 0.2 0.8156862
0 0.3803921 0.8352941
0.0705882 0.3764705 0.8470588
0.2117647 0.3607843 0.8352941
0.3607843 0.3607843 0.8313725
0.5137255 0.3568627 0.8196078
0.6666666 0.3529411 0.8196078
0.8156862 0.3568627 0.8235294
0.9764705 0.3490196 0.8196078
0.9960784 0.3411764 0.8078431
0 0.5215686 0.8313725
0.0549019 0.5137255 0.8313725
0.2039215 0.5137255 0.8274509
0.345098 0.5058823 0.8196078
0.4980392 0.5019608 0.8117647
0.6509804 0.4980392 0.8078431
0.7921568 0.4980392 0.8039215
0.9529411 0.4862745 0.7921568
1 0.4784313 0.7882353
0 0.6666666 0.8235294
0.0352941 0.6627451 0.8196078
0.1882352 0.6588235 0.8117647
0.3372549 0.6509804 0.8117647
0.4862745 0.6431372 0.8
0.6352941 0.6352941 0.7921568
0.7803921 0.6313725 0.7843137
0.9294117 0.6196078 0.7803921
1 0.6196078 0.772549
0 0.8156862 0.8156862
0.0352941 0.8039215 0.8117647
0.172549 0.8039215 0.7960784
0.317647 0.7921568 0.7882353
0.4666666 0.7843137 0.7803921
0.6196078 0.772549 0.7764706
0.7686274 0.7686274 0.7686274
0.9215686 0.7647058 0.7607843
1 0.7568627 0.7607843
0 0.9529411 0.7960784
0.0039215 0.9568627 0.7921568
0.1607843 0.9411764 0.772549
0.3019607 0.9333333 0.7647058
0.4470588 0.9294117 0.7607843
0.6 0.9137254 0.7529411
0.7490196 0.9098039 0.7372549
0.8980392 0.9098039 0.7490196
0.9960784 0.9019607 0.745098
0 1 0.7647058
0 1 0.7647058
0.1372549 1 0.7568627
0.290196 0.9960784 0.7607843
0.4392156 0.9960784 0.7529411
0.5921568 1 0.745098
0.7372549 1 0.7411764
0.8941176 1 0.745098
0.9960784 0.9960784 0.745098
0 0 0.9960784
0.090196 0 0.9960784
0.2470588 0 1
0.3960784 0 0.9960784
0.5529412 0 1
0.7019608 0 0.9960784
0.8627451 0 1
1 0 0.9921568
0.9960784 0 0.9882352
0 0.090196 1
0.0784313 0.090196 0.9960784
0.2392156 0.0823529 1
0.3882353 0.0784313 1
0.5411764 0.0745098 1
0.6862745 0.0745098 0.9960784
0.8352941 0.0666666 0.9921568
0.9960784 0.0705882 1
0.9960784 0.0509803 0.9921568
0 0.2235294 0.9960784
0.0705882 0.2352941 1
0.2156862 0.2196078 1
0.372549 0.2117647 1
0.5215686 0.2117647 1
0.6823529 0.2117647 0.9960784
0.8352941 0.2078431 0.9921568
1 0.2078431 1
0.9960784 0.2039215 0.972549
0 0.3686274 0.9960784
0.0509803 0.372549 0.9921568
0.2039215 0.3607843 0.9921568
0.3490196 0.3607843 0.9921568
0.5137255 0.3490196 0.9764705
0.6549019 0.3411764 0.972549
0.8117647 0.3490196 0.9764705
0.9764705 0.345098 0.9764705
0.9960784 0.3411764 0.9529411
0 0.517647 0.9960784
0.0470588 0.5098039 0.9803921
0.2039215 0.5058823 0.9686274
0.3372549 0.4980392 0.9764705
0.4980392 0.490196 0.972549
0.6392157 0.5019608 0.9647058
0.8 0.4862745 0.9529411
0.9529411 0.4823529 0.9529411
0.9921568 0.4862745 0.9372549
0.0039215 0.6627451 0.9921568
0.0392156 0.6549019 0.972549
0.1764705 0.6470588 0.9686274
0.3333333 0.6431372 0.9568627
0.4745098 0.6313725 0.9568627
0.6196078 0.6196078 0.9490196
0.7803921 0.627451 0.945098
0.9254902 0.6156862 0.9254902
1 0.6117647 0.9215686
0 0.8117647 0.9607843
0.0313725 0.8078431 0.9529411
0.1686274 0.7960784 0.945098
0.317647 0.7882353 0.9411764
0.4627451 0.7843137 0.9333333
0.6117647 0.7647058 0.9333333
0.7647058 0.772549 0.9254902
0.9098039 0.7686274 0.9098039
0.9921568 0.7568627 0.9098039
0 0.9529411 0.9372549
0.0078431 0.9568627 0.9490196
0.1647058 0.9333333 0.9333333
0.2941176 0.9294117 0.9254902
0.4549019 0.917647 0.917647
0.5960784 0.917647 0.917647
0.745098 0.9137254 0.8941176
0.9058823 0.9058823 0.9058823
1 0.8980392 0.8941176
0 0.9960784 0.9098039
0 1 0.9137254
0.1333333 0.9960784 0.9019607
0.2823529 1 0.9098039
0.4470588 1 0.8941176
0.5882353 1 0.9019607
0.7372549 0.9960784 0.8941176
0.8941176 1 0.8862745
0.9921568 1 0.9137254
0 0 0.9960784
0.090196 0 1
0.2431372 0 1
0.3882353 0 1
0.545098 0 1
0.690196 0 1
0.8470588 0 1
1 0 0.9921568
1 0 0.9921568
0 0.0862745 0.9960784
0.0823529 0.0823529 1
0.2352941 0.0784313 1
0.3843137 0.0745098 1
0.5372549 0.0705882 0.9960784
0.6823529 0.0705882 1
0.8313725 0.0666666 1
0.9882352 0.0666666 1
0.9960784 0.0588235 1
0 0.2235294 0.9960784
0.0666666 0.2235294 1
0.2196078 0.2196078 1
0.3647058 0.2117647 0.9921568
0.5215686 0.2117647 1
0.6627451 0.2117647 1
0.8156862 0.2078431 0.9960784
0.9686274 0.2039215 0.9960784
1 0.1960784 1
0 0.3647058 0.9960784
0.0588235 0.3607843 0.9960784
0.2039215 0.3607843 1
0.3529411 0.3490196 1
0.5019608 0.3490196 0.9960784
0.6509804 0.3490196 1
0.8039215 0.3411764 1
0.9529411 0.345098 1
0.9960784 0.3333333 0.9960784
0 0.5137255 0.9960784
0.0470588 0.5098039 0.9960784
0.1921568 0.5058823 0.9960784
0.3411764 0.4980392 1
0.4862745 0.490196 1
0.6352941 0.490196 1
0.7921568 0.490196 1
0.9411764 0.4784313 0.9960784
1 0.4823529 1
0 0.6509804 1
0.0352941 0.6470588 0.9960784
0.1803921 0.6392157 0.9960784
0.3254902 0.6313725 1
0.4705882 0.6313725 0.9960784
0.6196078 0.627451 1
0.7764706 0.6235294 0.9960784
0.9254902 0.6196078 1
1 0.6156862 0.9960784
0 0.7921568 1
0.0392156 0.7921568 1
0.1803921 0.7882353 1
0.3137255 0.7803921 1
0.4588235 0.7764706 1
0.6078431 0.7647058 0.9921568
0.7607843 0.7568627 1
0.9137254 0.7568627 0.9960784
1 0.7568627 1
0 0.9294117 1
0.0352941 0.9294117 0.9960784
0.1764705 0.9215686 1
0.3098039 0.9254902 1
0.4549019 0.9137254 0.9960784
0.6 0.9058823 1
0.7411764 0.9058823 1
0.8941176 0.9058823 0.9960784
0.9960784 0.9019607 0.9960784
0 1 1
0 1 1
0.1333333 0.9960784 0.9960784
0.2823529 0.9960784 1
0.4392156 0.9960784 0.9960784
0.5921568 1 1
0.7372549 0.9960784 0.9960784
0.890196 1 1
1 1 1
