cpp/luts/Natural+.cube
TITLE "Transferred from LUMIX camera"
#LUMIXPHOTOSTYLE NAT
LUT_3D_SIZE 5
0 0 0.0039215
0.2588235 0 0
0.5647059 0 0
0.8666666 0 0
0.9921568 0 0
0 0.2431372 0
0.2549019 0.2549019 0.0039215
0.545098 0.2392156 0
0.8431372 0.2313725 0
0.9960784 0.2078431 0
0 0.5333333 0
0.2196078 0.5333333 0
0.5294117 0.5294117 0
0.8313725 0.5137255 0.0039215
1 0.5019608 0.0039215
0 0.8235294 0
0.1843137 0.8117647 0
0.4980392 0.8117647 0
0.8156862 0.8039215 0
0.9921568 0.7803921 0
0 1 0.0039215
0.1411764 0.9960784 0
0.4509803 0.9960784 0
0.7568627 0.9960784 0
0.9960784 1 0.0117647
0 0 0.2588235
0.2588235 0 0.2588235
0.5647059 0 0.2509804
0.8549019 0 0.2431372
1 0 0.2196078
0 0.2509804 0.2509804
0.2431372 0.2431372 0.2431372
0.545098 0.2274509 0.2313725
0.8352941 0.2156862 0.2156862
1 0.2 0.2039215
0 0.5333333 0.2274509
0.2117647 0.5215686 0.2117647
0.5215686 0.5254902 0.2117647
0.8117647 0.5019608 0.1921568
0.9960784 0.4862745 0.1882352
0 0.8156862 0.1960784
0.1843137 0.8117647 0.1843137
0.4784313 0.8 0.1764705
0.7843137 0.7921568 0.172549
0.9960784 0.772549 0.172549
0 1 0.1490196
0.145098 0.9960784 0.145098
0.4470588 0.9921568 0.1411764
0.7490196 0.9960784 0.1529411
0.9960784 1 0.145098
0 0 0.5607843
0.2549019 0 0.5647059
0.5607843 0 0.5647059
0.8627451 0 0.5490196
1 0 0.5254902
0 0.2392156 0.5411764
0.2313725 0.2352941 0.545098
0.5411764 0.2313725 0.5411764
0.8431372 0.2196078 0.5333333
0.9960784 0.2 0.5058823
0 0.5372549 0.5294117
0.2117647 0.5294117 0.5254902
0.5098039 0.5098039 0.5098039
0.8117647 0.4941176 0.4980392
0.9960784 0.4784313 0.4823529
0 0.8196078 0.5098039
0.172549 0.8039215 0.4862745
0.4745098 0.7843137 0.4745098
0.772549 0.7764706 0.4627451
0.9960784 0.7647058 0.4588235
0 0.9960784 0.4549019
0.1411764 1 0.4509803
0.4431372 0.9960784 0.4392156
0.745098 1 0.4431372
1 1 0.4352941
0 0 0.8666666
0.2470588 0 0.8666666
0.5529412 0 0.8666666
0.8627451 0 0.8627451
1 0 0.8392156
0 0.2352941 0.8509804
0.2196078 0.2196078 0.8470588
0.5294117 0.2156862 0.8470588
0.8431372 0.2117647 0.8431372
0.9960784 0.2 0.8156862
0 0.5215686 0.8313725
0.2039215 0.5137255 0.8274509
0.4980392 0.5019608 0.8117647
0.7921568 0.4980392 0.8039215
1 0.4784313 0.7882353
0 0.8156862 0.8156862
0.172549 0.8039215 0.7960784
0.4666666 0.7843137 0.7803921
0.7686274 0.7686274 0.7686274
1 0.7568627 0.7607843
0 1 0.7647058
0.1372549 1 0.7568627
0.4392156 0.9960784 0.7529411
0.7372549 1 0.7411764
0.9960784 0.9960784 0.745098
0 0 0.9960784
0.2431372 0 1
0.545098 0 1
0.8470588 0 1
1 0 0.9921568
0 0.2235294 0.9960784
0.2196078 0.2196078 1
0.5215686 0.2117647 1
0.8156862 0.2078431 0.9960784
1 0.1960784 1
0 0.5137255 0.9960784
0.1921568 0.5058823 0.9960784
0.4862745 0.490196 1
0.7921568 0.490196 1
1 0.4823529 1
0 0.7921568 1
0.1803921 0.7882353 1
0.4588235 0.7764706 1
0.7607843 0.7568627 1
1 0.7568627 1
0 1 1
0.1333333 0.9960784 0.9960784
0.4392156 0.9960784 0.9960784
0.7372549 0.9960784 0.9960784
1 1 1
